X: 1
T:House Hunting
R:reel
C:Jerry Holland, SOCAN
O:20th Century Cape Breton
S:Tune ofthe Month, Jan. 2000
A:<http://www.jerryholland.com>
B:Jerry Holland: The Second Collection
D:Celtic Colours - Ceilidhe 2000
H:Copyrights - Publisher:Fiddlesticks Music (SOCAN).
Z:Used by permission of the composer and publisher.
Z:Paul Stewart Cranford 
L:1/8
Q:300
M:C|
K:Ador
a|:eA A/A/A dGGB|EA A/A/A A2 Bd|ea{b}ag efge|dG G/G/G Ggfd|!
eA A/A/A dGGB|EA A/A/A A2 Bd|eage dBGA|[1BAAG A2 ag:|[2BAAG A2||!
Bd|:ea (3(aga) bagd|ea{b}ag efge|dg (3(gfg) agfd|efge dGBd|!
ea (3(aga) bagd|ea{b}ag efge|dGBd g2 fd|[1efgd BAAd:|[2efgd BAA:|]!
